svg/opengitops.svg

<?xml version="1.0" encoding="UTF-8"?>
<svg xmlns="http://www.w3.org/2000/svg" xmlns:xlink="http://www.w3.org/1999/xlink" width="47.792999" height="32" viewBox="0 0 47.792999 32">
<path fill-rule="nonzero" fill="rgb(68.235294%, 79.215686%, 99.215686%)" fill-opacity="1" d="M 6.417969 19.335938 C 6.417969 18.929688 6.746094 18.597656 7.15625 18.597656 L 2.367188 18.597656 C 2.777344 18.597656 3.105469 18.929688 3.105469 19.339844 C 3.105469 19.746094 2.777344 20.078125 2.367188 20.078125 L 7.15625 20.078125 C 6.960938 20.078125 6.773438 20 6.632812 19.859375 C 6.496094 19.722656 6.417969 19.53125 6.417969 19.335938 M 6.417969 19.335938 "/>
<path fill-rule="nonzero" fill="rgb(55.294118%, 70.980392%, 99.215686%)" fill-opacity="1" d="M 6.417969 12.355469 C 6.417969 11.949219 6.746094 11.617188 7.15625 11.617188 L 0.597656 11.617188 C 0.527344 11.863281 0.464844 12.109375 0.40625 12.359375 L 0.382812 12.472656 C 0.363281 12.5625 0.34375 12.648438 0.324219 12.738281 C 0.3125 12.789062 0.304688 12.839844 0.296875 12.886719 C 0.28125 12.957031 0.269531 13.027344 0.253906 13.09375 L 7.15625 13.09375 C 6.960938 13.09375 6.773438 13.015625 6.632812 12.878906 C 6.496094 12.738281 6.417969 12.550781 6.417969 12.355469 M 6.417969 12.355469 "/>
<path fill-rule="nonzero" fill="rgb(36.470588%, 58.823529%, 98.823529%)" fill-opacity="1" d="M 7.308594 11.617188 L 7.15625 11.617188 C 6.75 11.617188 6.417969 11.949219 6.417969 12.355469 C 6.417969 12.761719 6.75 13.09375 7.15625 13.09375 L 10.492188 13.09375 C 10.597656 12.597656 10.730469 12.101562 10.894531 11.617188 Z M 7.308594 11.617188 "/>
<path fill-rule="nonzero" fill="rgb(49.019608%, 67.058824%, 99.215686%)" fill-opacity="1" d="M 9.804688 9.222656 C 10.070312 9.222656 10.3125 9.363281 10.445312 9.59375 C 10.578125 9.820312 10.578125 10.105469 10.445312 10.332031 C 10.3125 10.558594 10.070312 10.699219 9.804688 10.699219 L 11.234375 10.699219 C 11.441406 10.195312 11.683594 9.699219 11.949219 9.222656 Z M 9.804688 9.222656 "/>
<path fill-rule="nonzero" fill="rgb(36.470588%, 58.823529%, 98.823529%)" fill-opacity="1" d="M 10.542969 9.960938 C 10.542969 9.554688 10.210938 9.222656 9.804688 9.222656 L 1.492188 9.222656 C 1.265625 9.707031 1.0625 10.199219 0.890625 10.699219 L 9.804688 10.699219 C 10.214844 10.699219 10.542969 10.371094 10.542969 9.960938 M 10.542969 9.960938 "/>
<path fill-rule="nonzero" fill="rgb(61.960784%, 75.294118%, 99.215686%)" fill-opacity="1" d="M 8.914062 7.667969 C 8.914062 7.261719 9.246094 6.929688 9.652344 6.929688 L 3.691406 6.929688 C 4.097656 6.929688 4.429688 7.261719 4.429688 7.667969 C 4.429688 8.074219 4.097656 8.40625 3.691406 8.40625 L 9.652344 8.40625 C 9.246094 8.40625 8.914062 8.074219 8.914062 7.667969 M 8.914062 7.667969 "/>
<path fill-rule="nonzero" fill="rgb(36.470588%, 58.823529%, 98.823529%)" fill-opacity="1" d="M 4.429688 7.667969 C 4.429688 7.261719 4.097656 6.929688 3.691406 6.929688 L 2.804688 6.929688 C 2.476562 7.40625 2.171875 7.898438 1.898438 8.40625 L 3.691406 8.40625 C 4.097656 8.40625 4.429688 8.074219 4.429688 7.667969 M 11.894531 6.929688 L 9.652344 6.929688 C 9.246094 6.929688 8.914062 7.261719 8.914062 7.667969 C 8.914062 8.074219 9.246094 8.40625 9.652344 8.40625 L 12.441406 8.40625 C 12.78125 7.890625 13.152344 7.398438 13.554688 6.929688 Z M 11.894531 6.929688 "/>
<path fill-rule="nonzero" fill="rgb(55.294118%, 70.980392%, 99.215686%)" fill-opacity="1" d="M 10.542969 2.980469 C 10.542969 2.574219 10.875 2.242188 11.28125 2.242188 L 7.808594 2.242188 L 7.765625 2.265625 C 7.417969 2.476562 7.078125 2.699219 6.746094 2.933594 C 6.742188 2.9375 6.734375 2.9375 6.730469 2.941406 C 6.574219 3.054688 6.421875 3.167969 6.269531 3.28125 C 6.097656 3.414062 5.925781 3.554688 5.753906 3.695312 C 5.746094 3.703125 5.734375 3.710938 5.726562 3.71875 L 11.28125 3.71875 C 10.875 3.71875 10.542969 3.386719 10.542969 2.980469 M 10.542969 2.980469 "/>
<path fill-rule="nonzero" fill="rgb(61.960784%, 75.294118%, 99.215686%)" fill-opacity="1" d="M 11.335938 2.242188 C 11.742188 2.242188 12.074219 2.574219 12.074219 2.980469 C 12.074219 3.386719 11.742188 3.71875 11.335938 3.71875 L 17.589844 3.71875 C 19.0625 2.941406 20.667969 2.441406 22.320312 2.242188 Z M 11.335938 2.242188 "/>
<path fill-rule="nonzero" fill="rgb(43.921569%, 63.529412%, 98.823529%)" fill-opacity="1" d="M 12.074219 2.980469 C 12.074219 2.574219 11.742188 2.242188 11.335938 2.242188 L 11.28125 2.242188 C 10.875 2.242188 10.542969 2.574219 10.542969 2.980469 C 10.542969 3.386719 10.875 3.71875 11.28125 3.71875 L 11.335938 3.71875 C 11.742188 3.71875 12.074219 3.386719 12.074219 2.980469 M 12.074219 2.980469 "/>
<path fill-rule="nonzero" fill="rgb(36.470588%, 58.823529%, 98.823529%)" fill-opacity="1" d="M 15.972656 0 C 13.777344 -0.00390625 11.605469 0.445312 9.59375 1.324219 L 22.347656 1.324219 C 20.335938 0.449219 18.167969 -0.00390625 15.972656 0 M 15.972656 0 "/>
<path fill-rule="nonzero" fill="rgb(49.019608%, 67.058824%, 99.215686%)" fill-opacity="1" d="M 2.570312 13.910156 L 2.769531 13.910156 C 3.179688 13.910156 3.507812 14.242188 3.507812 14.648438 C 3.507812 15.054688 3.179688 15.386719 2.769531 15.386719 L 2.570312 15.386719 L 10.203125 15.386719 C 10.222656 14.894531 10.269531 14.402344 10.34375 13.910156 Z M 2.570312 13.910156 "/>
<path fill-rule="nonzero" fill="rgb(36.470588%, 58.823529%, 98.823529%)" fill-opacity="1" d="M 0 16.253906 C 0.0078125 16.753906 0.0390625 17.246094 0.09375 17.734375 L 10.292969 17.734375 C 10.234375 17.242188 10.199219 16.75 10.191406 16.253906 Z M 0 16.253906 "/>
<path fill-rule="nonzero" fill="rgb(45.882353%, 65.098039%, 98.823529%)" fill-opacity="1" d="M 7.15625 18.597656 C 6.882812 18.582031 6.625 18.722656 6.480469 18.957031 C 6.339844 19.191406 6.339844 19.484375 6.480469 19.71875 C 6.625 19.953125 6.882812 20.09375 7.15625 20.078125 L 10.796875 20.078125 C 10.648438 19.589844 10.523438 19.097656 10.429688 18.597656 Z M 7.15625 18.597656 "/>
<path fill-rule="nonzero" fill="rgb(49.019608%, 67.058824%, 99.215686%)" fill-opacity="1" d="M 1.574219 19.335938 C 1.574219 18.925781 1.90625 18.597656 2.316406 18.597656 L 0.210938 18.597656 C 0.21875 18.632812 0.222656 18.671875 0.230469 18.707031 C 0.238281 18.765625 0.25 18.824219 0.261719 18.882812 C 0.273438 18.953125 0.289062 19.019531 0.300781 19.089844 L 0.335938 19.265625 L 0.382812 19.46875 C 0.394531 19.527344 0.40625 19.585938 0.421875 19.644531 L 0.46875 19.847656 L 0.515625 20.019531 L 0.527344 20.078125 L 2.316406 20.078125 C 2.121094 20.078125 1.929688 20 1.792969 19.859375 C 1.652344 19.722656 1.574219 19.53125 1.574219 19.335938 M 1.574219 19.335938 "/>
<path fill-rule="nonzero" fill="rgb(42.745098%, 62.745098%, 98.823529%)" fill-opacity="1" d="M 3.105469 19.335938 C 3.105469 18.929688 2.773438 18.597656 2.367188 18.597656 L 2.316406 18.597656 C 1.929688 18.625 1.628906 18.949219 1.628906 19.339844 C 1.628906 19.726562 1.929688 20.050781 2.316406 20.078125 L 2.367188 20.078125 C 2.777344 20.078125 3.105469 19.746094 3.105469 19.335938 M 3.105469 19.335938 "/>
<path fill-rule="nonzero" fill="rgb(61.960784%, 75.294118%, 99.215686%)" fill-opacity="1" d="M 10.007812 20.941406 C 10.273438 20.941406 10.519531 21.082031 10.648438 21.3125 C 10.78125 21.542969 10.78125 21.824219 10.648438 22.050781 C 10.515625 22.28125 10.273438 22.421875 10.007812 22.421875 L 11.757812 22.421875 C 11.507812 21.941406 11.285156 21.449219 11.09375 20.941406 Z M 10.007812 20.941406 "/>
<path fill-rule="nonzero" fill="rgb(43.921569%, 63.529412%, 98.823529%)" fill-opacity="1" d="M 9.269531 21.679688 C 9.269531 21.273438 9.601562 20.941406 10.007812 20.941406 L 0.785156 20.941406 L 0.808594 21.019531 L 0.875 21.210938 L 0.9375 21.390625 C 0.960938 21.453125 0.984375 21.519531 1.007812 21.582031 L 1.078125 21.757812 C 1.101562 21.824219 1.125 21.886719 1.152344 21.949219 L 1.222656 22.125 L 1.304688 22.308594 C 1.320312 22.347656 1.335938 22.382812 1.351562 22.421875 L 10.007812 22.421875 C 9.597656 22.421875 9.269531 22.089844 9.269531 21.679688 M 9.269531 21.679688 "/>
<path fill-rule="nonzero" fill="rgb(42.745098%, 62.745098%, 98.823529%)" fill-opacity="1" d="M 1.84375 23.441406 C 1.859375 23.460938 1.867188 23.484375 1.882812 23.507812 C 1.917969 23.578125 1.960938 23.652344 2 23.722656 C 2.027344 23.769531 2.050781 23.820312 2.078125 23.867188 L 2.210938 24.089844 C 2.234375 24.132812 2.261719 24.179688 2.289062 24.222656 C 2.339844 24.304688 2.390625 24.390625 2.445312 24.472656 C 2.464844 24.503906 2.484375 24.539062 2.503906 24.570312 C 2.578125 24.683594 2.652344 24.796875 2.730469 24.910156 L 2.730469 24.917969 L 13.425781 24.917969 C 13.035156 24.449219 12.671875 23.957031 12.34375 23.441406 Z M 1.84375 23.441406 "/>
<path fill-rule="nonzero" fill="rgb(49.019608%, 67.058824%, 99.215686%)" fill-opacity="1" d="M 9.652344 27.261719 C 9.242188 27.261719 8.914062 26.929688 8.914062 26.523438 C 8.914062 26.117188 9.242188 25.785156 9.652344 25.785156 L 14.214844 25.785156 L 3.363281 25.785156 L 3.660156 26.15625 C 3.679688 26.175781 3.699219 26.199219 3.714844 26.21875 C 3.792969 26.3125 3.871094 26.40625 3.953125 26.496094 L 4.046875 26.601562 C 4.117188 26.683594 4.191406 26.761719 4.265625 26.84375 L 4.359375 26.941406 C 4.453125 27.042969 4.546875 27.140625 4.640625 27.234375 C 4.648438 27.246094 4.660156 27.253906 4.667969 27.261719 L 15.945312 27.261719 Z M 9.652344 27.261719 "/>
<path fill-rule="nonzero" fill="rgb(36.470588%, 58.823529%, 98.823529%)" fill-opacity="1" d="M 8.914062 26.523438 C 8.914062 26.929688 9.246094 27.261719 9.652344 27.261719 L 15.945312 27.261719 C 15.328125 26.816406 14.75 26.324219 14.214844 25.785156 L 9.652344 25.785156 C 9.246094 25.785156 8.914062 26.117188 8.914062 26.523438 M 8.914062 26.523438 "/>
<path fill-rule="nonzero" fill="rgb(55.294118%, 70.980392%, 99.215686%)" fill-opacity="1" d="M 13.957031 28.867188 C 13.957031 28.457031 14.289062 28.128906 14.695312 28.128906 L 17.308594 28.128906 L 5.605469 28.128906 L 5.652344 28.167969 C 5.789062 28.285156 5.925781 28.398438 6.066406 28.507812 L 6.09375 28.53125 C 6.273438 28.667969 6.453125 28.800781 6.632812 28.933594 C 6.78125 29.042969 6.929688 29.148438 7.082031 29.25 L 7.15625 29.296875 L 7.59375 29.578125 C 7.605469 29.585938 7.621094 29.597656 7.636719 29.605469 L 10.925781 29.605469 C 10.519531 29.605469 10.1875 29.273438 10.1875 28.867188 C 10.1875 28.457031 10.515625 28.128906 10.925781 28.128906 C 11.332031 28.128906 11.664062 28.457031 11.664062 28.867188 C 11.664062 29.273438 11.332031 29.605469 10.925781 29.605469 L 14.695312 29.605469 C 14.289062 29.605469 13.957031 29.273438 13.957031 28.867188 M 18.46875 29.605469 L 21.351562 29.605469 C 20.617188 29.460938 19.898438 29.257812 19.195312 29 C 19.125 29.347656 18.824219 29.601562 18.46875 29.605469 M 18.46875 29.605469 "/>
<path fill-rule="nonzero" fill="rgb(36.470588%, 58.823529%, 98.823529%)" fill-opacity="1" d="M 11.664062 28.867188 C 11.671875 28.597656 11.535156 28.34375 11.304688 28.203125 C 11.070312 28.066406 10.785156 28.066406 10.550781 28.203125 C 10.320312 28.34375 10.179688 28.597656 10.1875 28.867188 C 10.210938 29.257812 10.535156 29.558594 10.925781 29.558594 C 11.316406 29.558594 11.640625 29.257812 11.664062 28.867188 M 19.195312 29 C 18.546875 28.757812 17.914062 28.464844 17.308594 28.128906 L 14.695312 28.128906 C 14.289062 28.128906 13.957031 28.460938 13.957031 28.867188 C 13.957031 29.273438 14.289062 29.605469 14.695312 29.605469 L 18.46875 29.605469 C 18.824219 29.605469 19.128906 29.347656 19.195312 29 M 9.710938 30.675781 C 13.710938 32.375 18.230469 32.375 22.230469 30.675781 Z M 3.507812 14.648438 C 3.507812 14.242188 3.175781 13.910156 2.769531 13.910156 L 0.128906 13.910156 C 0.0664062 14.398438 0.0273438 14.890625 0.0078125 15.386719 L 2.769531 15.386719 C 3.175781 15.386719 3.507812 15.054688 3.507812 14.648438 M 10.480469 22.25 C 10.667969 22.09375 10.769531 21.855469 10.746094 21.609375 C 10.722656 21.367188 10.578125 21.148438 10.363281 21.03125 C 10.035156 20.851562 9.628906 20.945312 9.410156 21.246094 C 9.191406 21.546875 9.230469 21.964844 9.5 22.21875 C 9.773438 22.476562 10.191406 22.488281 10.480469 22.25 M 10.480469 22.25 "/>
<path fill-rule="nonzero" fill="rgb(38.823529%, 60.392157%, 98.823529%)" fill-opacity="1" d="M 4.824219 4.535156 C 4.804688 4.554688 4.785156 4.570312 4.765625 4.589844 L 4.53125 4.824219 L 4.445312 4.917969 C 4.339844 5.023438 4.238281 5.132812 4.136719 5.246094 L 4.09375 5.292969 L 3.835938 5.585938 C 3.804688 5.621094 3.777344 5.65625 3.746094 5.695312 C 3.675781 5.777344 3.605469 5.859375 3.539062 5.945312 C 3.519531 5.96875 3.5 5.988281 3.484375 6.011719 L 14.421875 6.011719 C 14.984375 5.46875 15.589844 4.976562 16.234375 4.535156 Z M 4.824219 4.535156 "/>
<path fill-rule="nonzero" fill="rgb(36.470588%, 58.823529%, 98.823529%)" fill-opacity="1" d="M 31.816406 0.0507812 C 29.042969 0.046875 26.320312 0.765625 23.914062 2.140625 L 23.996094 2.140625 C 30.730469 2.140625 36.339844 6.980469 37.558594 13.386719 L 31.582031 13.386719 C 30.445312 9.980469 27.1875 7.742188 23.597656 7.902344 C 20.011719 8.058594 16.960938 10.574219 16.128906 14.066406 C 15.292969 17.558594 16.875 21.183594 20.003906 22.945312 C 23.128906 24.710938 27.046875 24.1875 29.601562 21.664062 L 26.132812 21.664062 L 26.132812 17.832031 L 37.335938 17.832031 L 37.335938 29.074219 L 33.542969 29.074219 L 33.542969 26.011719 C 30.980469 28.484375 27.558594 29.863281 23.996094 29.859375 L 23.824219 29.859375 C 29.640625 33.21875 36.933594 32.582031 42.082031 28.269531 C 47.230469 23.953125 49.125 16.878906 46.832031 10.566406 C 44.535156 4.253906 38.535156 0.0507812 31.816406 0.0507812 M 31.816406 0.0507812 "/>
</svg>

<svg role="img" viewBox="0 0 47.793 32" height="32" width="47.793" xmlns="http://www.w3.org/2000/svg"><path d="M6.418 19.336c0-.406.328-.738.738-.738H2.367a.74.74 0 0 1 0 1.48h4.79a.74.74 0 0 1-.739-.742m0 0" fill="rgb(68.235294%, 79.215686%, 99.215686%)"/><path d="M6.418 12.355c0-.406.328-.738.738-.738H.598c-.07.246-.133.492-.192.742l-.023.114c-.02.09-.04.175-.059.265-.012.051-.02.102-.027.149-.016.07-.027.14-.043.207h6.902a.752.752 0 0 1-.523-.215.752.752 0 0 1-.215-.524m0 0" fill="rgb(55.294118%, 70.980392%, 99.215686%)"/><path d="M7.309 11.617h-.153a.74.74 0 0 0-.738.738.74.74 0 0 0 .738.739h3.336c.106-.496.238-.992.403-1.477Zm0 0" fill="rgb(36.470588%, 58.823529%, 98.823529%)"/><path d="M9.805 9.223c.265 0 .508.14.64.37a.734.734 0 0 1 0 .739.741.741 0 0 1-.64.367h1.43c.206-.504.449-1 .714-1.476Zm0 0" fill="rgb(49.019608%, 67.058824%, 99.215686%)"/><path d="M10.543 9.96a.74.74 0 0 0-.738-.737H1.492c-.226.484-.43.976-.601 1.476h8.914c.41 0 .738-.328.738-.738m0 0" fill="rgb(36.470588%, 58.823529%, 98.823529%)"/><path d="M8.914 7.668a.74.74 0 0 1 .738-.738h-5.96a.74.74 0 0 1 .738.738.74.74 0 0 1-.739.738h5.961a.74.74 0 0 1-.738-.738m0 0" fill="rgb(61.960784%, 75.294118%, 99.215686%)"/><path d="M4.43 7.668a.74.74 0 0 0-.739-.738h-.886c-.328.476-.633.968-.907 1.476h1.793a.74.74 0 0 0 .739-.738m7.465-.738H9.652a.74.74 0 0 0-.738.738.74.74 0 0 0 .738.738h2.79c.34-.515.71-1.008 1.113-1.476Zm0 0" fill="rgb(36.470588%, 58.823529%, 98.823529%)"/><path d="M10.543 2.98a.74.74 0 0 1 .738-.738H7.81l-.043.024c-.348.21-.688.433-1.02.668-.004.003-.012.003-.016.007-.156.114-.308.227-.46.34-.172.133-.344.274-.516.414-.008.008-.02.016-.027.024h5.554a.74.74 0 0 1-.738-.739m0 0" fill="rgb(55.294118%, 70.980392%, 99.215686%)"/><path d="M11.336 2.242a.74.74 0 0 1 .738.738.74.74 0 0 1-.738.739h6.254a13.635 13.635 0 0 1 4.73-1.477Zm0 0" fill="rgb(61.960784%, 75.294118%, 99.215686%)"/><path d="M12.074 2.98a.74.74 0 0 0-.738-.738h-.055a.74.74 0 0 0-.738.738.74.74 0 0 0 .738.739h.055a.74.74 0 0 0 .738-.739m0 0" fill="rgb(43.921569%, 63.529412%, 98.823529%)"/><path d="M15.973 0a15.86 15.86 0 0 0-6.38 1.324h12.755A15.907 15.907 0 0 0 15.973 0m0 0" fill="rgb(36.470588%, 58.823529%, 98.823529%)"/><path d="M2.57 13.91h.2a.738.738 0 1 1 0 1.477h-.2 7.633c.02-.492.067-.985.14-1.477Zm0 0" fill="rgb(49.019608%, 67.058824%, 99.215686%)"/><path d="M0 16.254c.008.5.04.992.094 1.48h10.199a14.422 14.422 0 0 1-.102-1.48Zm0 0" fill="rgb(36.470588%, 58.823529%, 98.823529%)"/><path d="M7.156 18.598a.741.741 0 1 0 0 1.48h3.64c-.148-.488-.273-.98-.366-1.48Zm0 0" fill="rgb(45.882353%, 65.098039%, 98.823529%)"/><path d="M1.574 19.336c0-.41.332-.738.742-.738H.211c.008.035.012.074.02.109.007.059.019.117.03.176.012.07.028.137.04.207l.035.176.047.203c.012.058.023.117.039.176l.047.203.047.172.011.058h1.79a.733.733 0 0 1-.524-.219.733.733 0 0 1-.219-.523m0 0" fill="rgb(49.019608%, 67.058824%, 99.215686%)"/><path d="M3.105 19.336a.74.74 0 0 0-.738-.738h-.05a.742.742 0 0 0 0 1.48h.05c.41 0 .738-.332.738-.742m0 0" fill="rgb(42.745098%, 62.745098%, 98.823529%)"/><path d="M10.008 20.941a.73.73 0 0 1 .64.372.734.734 0 0 1 0 .738.737.737 0 0 1-.64.37h1.75c-.25-.48-.473-.972-.664-1.48Zm0 0" fill="rgb(61.960784%, 75.294118%, 99.215686%)"/><path d="M9.27 21.68a.74.74 0 0 1 .738-.739H.785l.024.079.066.19.063.18c.023.063.046.13.07.192l.07.176c.024.066.047.129.074.191l.07.176.083.184c.015.039.03.074.047.113h8.656a.74.74 0 0 1-.738-.742m0 0" fill="rgb(43.921569%, 63.529412%, 98.823529%)"/><path d="M1.844 23.441c.015.02.023.043.039.067.035.07.078.144.117.215.027.047.05.097.078.144l.133.223c.023.043.05.09.078.133.05.082.102.168.156.25.02.03.04.066.059.097.074.114.148.227.226.34v.008h10.696c-.39-.469-.754-.961-1.082-1.477Zm0 0" fill="rgb(42.745098%, 62.745098%, 98.823529%)"/><path d="M9.652 27.262a.738.738 0 1 1 0-1.477h4.563H3.363l.297.371c.02.02.04.043.055.063.078.093.156.187.238.277l.094.106c.07.082.144.16.219.242l.093.097c.094.102.188.2.282.293.007.012.02.02.027.028h11.277Zm0 0" fill="rgb(49.019608%, 67.058824%, 99.215686%)"/><path d="M8.914 26.523a.74.74 0 0 0 .738.739h6.293a13.871 13.871 0 0 1-1.73-1.477H9.652a.74.74 0 0 0-.738.738m0 0" fill="rgb(36.470588%, 58.823529%, 98.823529%)"/><path d="M13.957 28.867c0-.41.332-.738.738-.738h2.614H5.605l.047.039c.137.117.274.23.414.34l.028.023c.18.137.36.27.539.403.148.109.297.214.449.316l.074.047.438.281c.011.008.027.02.043.027h3.289a.738.738 0 1 1-.001-1.478.738.738 0 0 1 0 1.478h3.77a.74.74 0 0 1-.738-.738m4.512.738h2.883A14.25 14.25 0 0 1 19.195 29a.751.751 0 0 1-.726.605m0 0" fill="rgb(55.294118%, 70.980392%, 99.215686%)"/><path d="M11.664 28.867a.752.752 0 0 0-.36-.664.744.744 0 0 0-.753 0 .756.756 0 0 0-.364.664c.024.39.348.692.739.692.39 0 .715-.301.738-.692m7.531.133a13.978 13.978 0 0 1-1.886-.871h-2.614a.74.74 0 0 0-.738.738.74.74 0 0 0 .738.738h3.774c.355 0 .66-.257.726-.605m-9.484 1.676c4 1.699 8.52 1.699 12.52 0ZM3.508 14.648a.74.74 0 0 0-.738-.738H.129c-.063.488-.102.98-.121 1.477H2.77a.74.74 0 0 0 .738-.739m6.972 7.602a.742.742 0 0 0 .266-.64.744.744 0 0 0-.383-.579.74.74 0 1 0 .117 1.219m0 0" fill="rgb(36.470588%, 58.823529%, 98.823529%)"/><path d="M4.824 4.535c-.02.02-.039.035-.058.055l-.235.234-.086.094a8.251 8.251 0 0 0-.308.328l-.043.047-.258.293c-.031.035-.059.07-.09.11-.07.081-.14.163-.207.25-.02.023-.039.042-.055.066h10.938a13.98 13.98 0 0 1 1.812-1.477Zm0 0" fill="rgb(38.823529%, 60.392157%, 98.823529%)"/><path d="M31.816.05a15.875 15.875 0 0 0-7.902 2.09h.082c6.734 0 12.344 4.84 13.563 11.247h-5.977a8.037 8.037 0 0 0-7.984-5.485 8.043 8.043 0 0 0-3.594 15.043 8.034 8.034 0 0 0 9.598-1.28h-3.47v-3.833h11.204v11.242h-3.793v-3.062a13.724 13.724 0 0 1-9.547 3.847h-.172a15.982 15.982 0 0 0 18.258-1.59 15.98 15.98 0 0 0 4.75-17.703A15.979 15.979 0 0 0 31.816.051m0 0" fill="rgb(36.470588%, 58.823529%, 98.823529%)"/></svg>
